a2n.archupdate.plasmoid/contents/assets/arch-unknown.svg

<svg width="16" height="16" version="1.1" xmlns="http://www.w3.org/2000/svg">
 <path d="m8 0a8 8 0 0 0-8 8 8 8 0 0 0 8 8 8 8 0 0 0 8-8 8 8 0 0 0-8-8zm-0.09375 1a7 7 0 0 1 0.09375 0 7 7 0 0 1 7 7 7 7 0 0 1-7 7 7 7 0 0 1-7-7 7 7 0 0 1 6.9062-7z" fill="#dedede" stroke-linecap="round" stroke-linejoin="round" stroke-width="2"/>
 <path d="m5.1288 5.2144a4 4 0 0 0-0.57452 4.8172l2.0316-2.0316-0.70711-0.70711-0.87284 0.87283a3 3 0 0 1 0.83693-2.2511 3 3 0 0 1 0.035908-0.035908 3 3 0 0 1 3.4126-0.58419l0.74025-0.74025a4 4 0 0 0-4.86 0.61734 4 4 0 0 0-0.042813 0.042813zm0.83969 6.2314a4 4 0 0 0 4.86-0.61734 4 4 0 0 0 0.61596-4.8586l-2.0302 2.0302 0.70711 0.70711 0.87284-0.87283a3 3 0 0 1-0.87284 2.287 3 3 0 0 1-3.4126 0.58419z" fill="#dedede" stroke-linecap="round" stroke-linejoin="round" stroke-width="2"/>
</svg>

<?xml version="1.0" encoding="UTF-8" standalone="no"?>
<svg
   width="32"
   height="32"
   version="1.1"
   id="svg2"
   sodipodi:docname="arch-unknown.svg"
   inkscape:version="1.3 (0e150ed6c4, 2023-07-21)"
   xmlns:inkscape="http://www.inkscape.org/namespaces/inkscape"
   xmlns:sodipodi="http://sodipodi.sourceforge.net/DTD/sodipodi-0.dtd"
   xmlns="http://www.w3.org/2000/svg"
   xmlns:svg="http://www.w3.org/2000/svg">
  <sodipodi:namedview
     id="namedview2"
     pagecolor="#ffffff"
     bordercolor="#000000"
     borderopacity="0.25"
     inkscape:showpageshadow="2"
     inkscape:pageopacity="0.0"
     inkscape:pagecheckerboard="0"
     inkscape:deskcolor="#d1d1d1"
     inkscape:zoom="4.7729708"
     inkscape:cx="1.2570787"
     inkscape:cy="37.502848"
     inkscape:window-width="1920"
     inkscape:window-height="1048"
     inkscape:window-x="0"
     inkscape:window-y="32"
     inkscape:window-maximized="1"
     inkscape:current-layer="icon" />
  <defs
     id="materia">
    <style
       id="current-color-scheme"
       type="text/css">&#10;   .ColorScheme-Background {color:#181818; } .ColorScheme-ButtonBackground { color:#343434; } .ColorScheme-Highlight { color:#4285f4; } .ColorScheme-Text { color:#dfdfdf; } .ColorScheme-ViewBackground { color:#242424; } .ColorScheme-NegativeText { color:#f44336; } .ColorScheme-PositiveText { color:#4caf50; } .ColorScheme-NeutralText { color:#ff9800; }&#10;  </style>
  </defs>
  <g
     id="icon"
     class="ColorScheme-Text"
     style="opacity:1;fill:currentColor">
    <rect
       style="opacity:0.001"
       width="32"
       height="32"
       x="0"
       y="0"
       id="rect2" />
    <g
       id="g2"
       transform="matrix(1.5,0,0,1.5,4,4)">
      <path
         d="M 8,0 A 8,8 0 0 0 0,8 8,8 0 0 0 8,16 8,8 0 0 0 16,8 8,8 0 0 0 8,0 Z M 7.90625,1 A 7,7 0 0 1 8,1 7,7 0 0 1 15,8 7,7 0 0 1 8,15 7,7 0 0 1 1,8 7,7 0 0 1 7.9062,1 Z"
         stroke-linecap="round"
         stroke-linejoin="round"
         stroke-width="2"
         id="path1" />
      <path
         d="M 5.1288,5.2144 A 4,4 0 0 0 4.55428,10.0316 L 6.58588,8 5.87877,7.29289 5.00593,8.16572 a 3,3 0 0 1 0.83693,-2.2511 3,3 0 0 1 0.035908,-0.035908 3,3 0 0 1 3.4126,-0.58419 l 0.74025,-0.74025 a 4,4 0 0 0 -4.86,0.61734 4,4 0 0 0 -0.042813,0.042813 z m 0.83969,6.2314 a 4,4 0 0 0 4.86,-0.61734 4,4 0 0 0 0.61596,-4.8586 l -2.0302,2.0302 0.70711,0.70711 0.87284,-0.87283 a 3,3 0 0 1 -0.87284,2.287 3,3 0 0 1 -3.4126,0.58419 z"
         stroke-linecap="round"
         stroke-linejoin="round"
         stroke-width="2"
         id="path2" />
    </g>
  </g>
</svg>
